X:045 
T:Dolly & the Gypsy*  (barn dance)
F:file ID: cre.5/045dol_gyp
B:CRE5.221 (gan ainm)
N:According to Breathnach's liner notes for this tune, it is a
combination of "Dolly Varden" and "The Gypsy Princess", hence
my title for it.
M:4/4
Q:150
R:hornpipe
K:G
GA|B2B2 B2B2|ABAG E2DE|G2GB d2d2|e2dB ABGA|
B2B2 B2B2|ABAG E2DE|G2BG AcBA|1 G2G2 G2:|2 G2G2 G3||
|:B|d2d2 d2d2|AcBA GABd|e2e2 e2e2|AcBA GABc|
d2d2 d2d2|AcBA GABd|g2ge dBGA|1 B2A2G3:|2 B2A2 HG4|]

%%%

